trunk/WorldWind/resources/milstd2525/icons/ems/euoaed---------.svg

<?xml version="1.0" encoding="UTF-8" standalone="no"?>
<!--
Copyright (C) 2012 United States Government as represented by the Administrator of the
National Aeronautics and Space Administration.
All Rights Reserved.
-->

<!--
MIL-STD-2525 tactical symbol icon image. During icon composition this image is multiplied by the desired frame color 
(e.g. black), then drawn on top of the frame and fill.
-->

<svg
   xmlns:dc="http://purl.org/dc/elements/1.1/"
   xmlns:cc="http://creativecommons.org/ns#"
   xmlns:rdf="http://www.w3.org/1999/02/22-rdf-syntax-ns#"
   xmlns:svg="http://www.w3.org/2000/svg"
   xmlns="http://www.w3.org/2000/svg"
   xmlns:sodipodi="http://sodipodi.sourceforge.net/DTD/sodipodi-0.dtd"
   xmlns:inkscape="http://www.inkscape.org/namespaces/inkscape"
   height="400px"
   viewBox="0 0 400 400"
   width="400px"
   id="svg2"
   version="1.1"
   inkscape:version="0.48.2 r9819"
   sodipodi:docname="euoaed---------.svg">
  <metadata
     id="metadata14">
    <rdf:RDF>
      <cc:Work
         rdf:about="">
        <dc:format>image/svg+xml</dc:format>
        <dc:type
           rdf:resource="http://purl.org/dc/dcmitype/StillImage" />
      </cc:Work>
    </rdf:RDF>
  </metadata>
  <defs
     id="defs12" />
  <sodipodi:namedview
     pagecolor="#ffffff"
     bordercolor="#666666"
     borderopacity="1"
     objecttolerance="10"
     gridtolerance="10"
     guidetolerance="10"
     inkscape:pageopacity="0"
     inkscape:pageshadow="2"
     inkscape:window-width="640"
     inkscape:window-height="480"
     id="namedview10"
     showgrid="false"
     inkscape:zoom="0.59"
     inkscape:cx="200"
     inkscape:cy="200"
     inkscape:window-x="0"
     inkscape:window-y="0"
     inkscape:window-maximized="0"
     inkscape:current-layer="svg2" />
  <g
     transform="matrix(5,0,0,5,110,141)"
     id="g4"
     style="stroke:#000000;stroke-width:1.20000005;stroke-miterlimit:4;stroke-opacity:1;stroke-dasharray:2.4, 1.2;stroke-dashoffset:0">
    <path
       inkscape:connector-curvature="0"
       d="m 35.928,17.965 c -0.24,-0.047 -1.225,0.338 -2.951,1.15 -1.105,0.48 -2.377,1.223 -3.816,2.229 -5.281,3.498 -9,8.217 -11.16,14.156 -0.098,0 -0.24,-0.119 -0.432,-0.359 C 16.753,32.555 15.288,29.967 13.176,27.379 10.967,24.602 8.424,22.301 5.545,20.481 4.199,19.619 2.352,18.758 0,17.895 -0.039,17.799 -0.039,17.727 0,17.678 0.623,17.391 1.463,17.032 2.52,16.6 5.254,15.69 8.17,13.606 11.268,10.348 14.364,7.09 16.391,4.026 17.352,1.151 17.496,0.768 17.711,0.383 18,0 c 0.91,2.828 2.639,5.773 5.184,8.84 2.688,3.305 5.447,5.652 8.279,7.041 0.625,0.289 1.633,0.744 3.025,1.365 0.43,0.049 0.91,0.289 1.44,0.719 z"
       style="fill:#ffffff;stroke:#000000;stroke-width:1.20000005;stroke-miterlimit:4;stroke-opacity:1;stroke-dasharray:2.4, 1.2;stroke-dashoffset:0"
       id="path6" />
  </g>
  <g
     transform="translate(1.9209295e-8,-4e-6)"
     style="font-size:52px;font-weight:bold;text-anchor:middle;fill:#ffffff;font-family:Arial"
     id="text8">
    <path
       inkscape:connector-curvature="0"
       d="m 185.07031,135 0,-37.222656 7.3125,0 15.23438,24.857426 0,-24.857426 6.98242,0 0,37.222656 -7.54102,0 -15.00586,-24.27344 0,24.27344 z"
       style="font-size:52px;font-weight:bold;text-anchor:middle;fill:#ffffff;font-family:Arial"
       id="path3760" />
  </g>
</svg>

<?xml version="1.0"?>
<!--
Copyright (C) 2012 United States Government as represented by the Administrator of the
National Aeronautics and Space Administration.
All Rights Reserved.
-->

<!DOCTYPE svg PUBLIC "-//W3C//DTD SVG 1.1//EN" "http://www.w3.org/Graphics/SVG/1.1/DTD/svg11.dtd" >
<!--
MIL-STD-2525 tactical symbol icon image. During icon composition this image is multiplied by the desired frame color 
(e.g. black), then drawn on top of the frame and fill.
-->
<svg xmlns:xlink="http://www.w3.org/1999/xlink" height="400px" viewBox="0 0 400 400" width="400px"><g transform="translate(110 111) scale(5 5) translate(0 6)"><path d="M35.928 17.965 C35.688 17.918 34.703 18.303 32.977 19.115 C31.872 19.595 30.6 20.338     29.161 21.344 C23.88 24.842 20.161 29.561 18.001 35.5 C17.903 35.5 17.761     35.381 17.569 35.141 C16.753 32.555 15.288 29.967 13.176 27.379 C10.967 24.602     8.424 22.301 5.545 20.481 C4.199 19.619 2.352 18.758 0 17.895 C-0.039 17.799     -0.039 17.727 0 17.678 C0.623 17.391 1.463 17.032 2.52 16.6 C5.254 15.69     8.17 13.606 11.268 10.348 C14.364 7.09 16.391 4.026 17.352 1.151 C17.496     0.768 17.711 0.383 18 0 C18.91 2.828 20.639 5.773 23.184 8.84 C25.872 12.145     28.631 14.492 31.463 15.881 C32.088 16.17 33.096 16.625 34.488 17.246 C34.918     17.295 35.398 17.535 35.928 17.965 z" style="fill:rgb(255,255,255)"/></g><text style="fill:rgb(255,255,255);font-family:Arial;font-size:52;font-weight:bold;text-anchor:middle" x="200" y="135">N</text></svg>
